packages/foundations/assets/icons/functional/images/social/face_delighted_24.svg

<svg xmlns="http://www.w3.org/2000/svg" width="24" height="24" fill="none"><g clip-path="url(#a)"><path fill="#1A1C1F" fill-rule="evenodd" d="M19 12c0 3.86-3.14 7-7 7s-7-3.14-7-7 3.14-7 7-7 7 3.14 7 7M3 12a9 9 0 0 0 9 9 9 9 0 0 0 9-9 9 9 0 0 0-9-9 9 9 0 0 0-9 9m4.693 1.647a1 1 0 0 1 1.365-1.074c.01.004 1.28.502 2.942.502s2.929-.497 2.942-.502a1 1 0 0 1 1.365 1.074c-.197 1.333-1.352 3.854-4.307 3.854s-4.109-2.521-4.307-3.854m2.835 1.328c.343.303.817.526 1.472.526s1.129-.224 1.471-.526c-.892.121-2.05.121-2.943 0m-1.462-4.299a.68.68 0 0 1 .508.136 1 1 0 0 0 1.217-1.586 2.69 2.69 0 0 0-3.769.496 1 1 0 1 0 1.587 1.216.7.7 0 0 1 .457-.262m7.726.448a1 1 0 0 0 .185-1.401 2.69 2.69 0 0 0-3.769-.496 1 1 0 1 0 1.217 1.586.68.68 0 0 1 .508-.136.68.68 0 0 1 .456.263 1 1 0 0 0 1.402.185z" clip-rule="evenodd"/></g><defs><clipPath id="a"><path fill="#fff" d="M0 0h24v24H0z"/></clipPath></defs></svg>

<svg width="24" height="24" viewBox="0 0 24 24" fill="none" xmlns="http://www.w3.org/2000/svg">
<g clip-path="url(#clip0_187_345)">
<path fill-rule="evenodd" clip-rule="evenodd" d="M19 12C19 15.86 15.86 19 12 19C8.14 19 5 15.86 5 12C5 8.14 8.14 5 12 5C15.86 5 19 8.14 19 12ZM3 12C3 16.971 7.029 21 12 21C16.971 21 21 16.971 21 12C21 7.029 16.971 3 12 3C7.029 3 3 7.029 3 12ZM7.693 13.647C7.64 13.293 7.782 12.936 8.064 12.714C8.346 12.491 8.725 12.439 9.058 12.573C9.068 12.577 10.338 13.075 12 13.075C13.662 13.075 14.929 12.578 14.942 12.573C15.274 12.438 15.653 12.491 15.936 12.714C16.218 12.936 16.36 13.292 16.307 13.647C16.11 14.98 14.955 17.501 12 17.501C9.045 17.501 7.891 14.98 7.693 13.647ZM10.528 14.975C10.871 15.278 11.345 15.501 12 15.501C12.655 15.501 13.129 15.277 13.471 14.975C12.579 15.096 11.421 15.096 10.528 14.975ZM9.066 10.676C9.249 10.652 9.428 10.7 9.574 10.812C10.012 11.147 10.639 11.066 10.976 10.627C11.312 10.189 11.229 9.562 10.791 9.226C9.615 8.323 7.925 8.545 7.022 9.722C6.686 10.16 6.769 10.787 7.207 11.123C7.389 11.263 7.603 11.33 7.815 11.33C8.115 11.33 8.412 11.195 8.609 10.938C8.722 10.793 8.883 10.701 9.066 10.676ZM16.792 11.124C17.23 10.788 17.313 10.16 16.977 9.723C16.074 8.546 14.384 8.323 13.208 9.227C12.77 9.563 12.687 10.191 13.023 10.628C13.36 11.067 13.987 11.149 14.425 10.813C14.57 10.702 14.75 10.653 14.933 10.677C15.115 10.701 15.277 10.794 15.389 10.94C15.586 11.197 15.883 11.332 16.183 11.332C16.396 11.332 16.61 11.265 16.791 11.125L16.792 11.124Z" fill="#1A1C1F"/>
</g>
<defs>
<clipPath id="clip0_187_345">
<rect width="24" height="24" fill="white"/>
</clipPath>
</defs>
</svg>
